X:1
T:Title
%%score { ( 1 3 ) | ( 2 4 ) }
L:1/8
Q:1/4=100
M:4/4
K:G
V:1 treble nm="Grand Piano"
V:3 treble 
V:2 bass 
V:4 bass 
V:1
 [DGB]4 [CFA]2 [B,G]2 | [^DF]2 [CDc]2 [CDc]4 | F2 z2 [GB]2 [FA]2 | B4 B4 | d4 d2 e2 | d2 B2 [FA]4 | %6
w: Geo.~C.~Hugg * *||||||
 [EG]4 [DF]2 [^CE]2 | D6 z2 |[Q:1/4=108] G2 B>A G2 B>c |[M:3/4] d6 |[M:1/4] d>d | %11
w: |||||
[M:4/4] [Ge]2 [Ge]2 d>B G>B | [FA]6 z2 | [Ac]2 [Ac]2 [Ac]>[Ac] [GB]>[FA] | B2 B2 B2 G>B | %15
w: ||||
 d2 d2 d>e d>B |[M:3/4] [GB]2 [FA]2 [FA]2 |[M:1/4] D>G |[M:4/4] B6 z2 | d6 z2 | %20
w: |||||
 B2 [EGc]2 [CFA]3 [B,G] | [B,G]6 z2 |] %22
w: ||
V:2
 G,4 D,2 E,2 | B,2 A,2 A,4 | z2 A2 [D,D]2 [D,D]2 | [G,DG]4 [G,DG]4 | [G,B,G]4 [G,B,G]2 [G,CG]2 | %5
 [G,B,G]2 [G,DG]2[K:bass] [D,D]4 | [A,^C]4 [A,,A,]2 [A,,G,]2 | [D,F,]6 z2 | %8
 [G,B,D]2 [G,DG]>[G,CF] [G,B,]2 [G,DG]>[G,A,G] |[M:3/4] G2- [G,G-]>[G,G-] [G,G]2 | %10
[M:1/4] [G,B,G]>[G,B,G] |[M:4/4][K:bass] [C,C]2 [C,C]2[K:treble] [G,B,G]>[G,DG] [G,B,]>[G,DG] | %12
 [D,D]2 D,>D, D,2 [D,D]>[D,D] | [D,D]2 [D,D]2 [D,D]>[D,D] [D,D]>[D,D] | %14
 [G,DG]2 [G,DG]2 [G,DG]2 [G,B,]>[G,DG] | [G,B,G]2 [G,B,G]2 [G,B,G]>[G,CG] [G,B,G]>[G,DG] | %16
[M:3/4][K:bass] [D,D]2 [D,D]2 [D,D]2 |[M:1/4] z2 |[M:4/4] z2 [G,D]>[G,D] [G,D]2 z2 | %19
 z2 [G,B,]>[G,B,] [G,B,]2[K:treble] [G,B,G]>[G,CG] | [G,DG]2[K:bass] C,2 D,3 G, | G,6 z2 |] %22
V:3
 x8 | x8 | [Dc]4 z4 | x8 | x8 | x8 | x8 | x8 | x8 |[M:3/4] z2 B,>B, B,2 |[M:1/4] x2 |[M:4/4] x8 | %12
 z2 D>D D2 [FA]>[GB] | x8 | x8 | x8 |[M:3/4] x6 |[M:1/4] x2 |[M:4/4] z2 G>G G2 G>B | %19
 z2 G>G G2 d>c | x8 | x8 |] %22
V:4
 x8 | x8 | D,4 z4 | x8 | x8 | x4[K:bass] x4 | x8 | x8 | x8 |[M:3/4] [G,B,]2 z2 z2 |[M:1/4] x2 | %11
[M:4/4][K:bass] x4[K:treble] x4 | x8 | x8 | x8 | x8 |[M:3/4][K:bass] x6 |[M:1/4] x2 |[M:4/4] x8 | %19
 x6[K:treble] x2 | x2[K:bass] x6 | x8 |] %22

